svg/misc/table-question-alt.svg

<svg width="544" height="512" viewBox="0 0 544 512" version="1.1" xmlns="http://www.w3.org/2000/svg"><path fill="currentColor" d="M24,400.001l-16,0c-4.418,0 -8,-3.581 -8,-8l0,-184l0.005,-0.001l-0.005,0l117.333,-96l234.667,0l-0.001,0.002l0.001,-0.001l0,184c0,4.411 -3.569,7.987 -8,8l-16,0c-4.418,0 -8,-3.581 -8,-8l0,-122.022l-64.022,57.43c0.015,0.196 0.022,0.393 0.022,0.592l0,160c0,4.411 -3.569,7.987 -8,8l-15,0c-4.418,0 -8,-3.581 -8,-8l0,-152l-193,0l0,152c0,4.411 -3.568,7.987 -8,8Zm456,-40.001c0,13.255 -10.745,24 -24,24c-13.255,0 -24,-10.745 -24,-24c0,-13.255 10.745,-24 24,-24c13.255,0 24,10.745 24,24Zm-64,-160c0,-22.091 17.909,-40 40,-40c22.091,0 40,17.909 40,40c0,22.091 -17.909,40 -40,40c-13.255,0 -24,10.745 -24,24l0,32c0,13.255 10.745,24 24,24c13.255,0 24,-10.745 24,-24l0,-11.313c36.936,-10.446 64,-44.406 64,-84.687c0,-48.601 -39.399,-88 -88,-88c-48.601,0 -88,39.399 -88,88c0,13.255 10.745,24 24,24c13.255,0 24,-10.745 24,-24Zm-288,56.001l0,40c0,4.419 -3.582,8 -8,8l-16,0c-4.418,0 -8,-3.581 -8,-8l0,-40l32,0Z"></path></svg>

<svg width="544" height="512" viewBox="0 0 544 512" fill="none" xmlns="http://www.w3.org/2000/svg">
<path d="M352 112L351.999 112.002L352 112.001V296.001C352 300.42 348.418 304.001 344 304.001H328C323.582 304.001 320 300.42 320 296.001V173.979L255.978 231.409C255.993 231.605 256 231.802 256 232.001V392.001C256 396.42 252.418 400.001 248 400.001H233C228.582 400.001 225 396.42 225 392.001V240.001H32V392.001C32 396.42 28.4183 400.001 24 400.001H8C3.58172 400.001 0 396.42 0 392.001V208.001L0.0050354 208H0L117.333 112H352Z" fill="black"/>
<path d="M128 256.001H96V296.001C96 300.42 99.5817 304.001 104 304.001H120C124.418 304.001 128 300.42 128 296.001V256.001Z" fill="black"/>
<path d="M416 200C416 177.909 433.909 160 456 160C478.091 160 496 177.909 496 200C496 222.091 478.091 240 456 240C442.745 240 432 250.745 432 264V296C432 309.255 442.745 320 456 320C469.255 320 480 309.255 480 296V284.687C516.936 274.241 544 240.281 544 200C544 151.399 504.601 112 456 112C407.399 112 368 151.399 368 200C368 213.255 378.745 224 392 224C405.255 224 416 213.255 416 200Z" fill="black"/>
<path d="M480 360C480 373.255 469.255 384 456 384C442.745 384 432 373.255 432 360C432 346.745 442.745 336 456 336C469.255 336 480 346.745 480 360Z" fill="black"/>
</svg>
